src/icons/black/default.svg

<svg xmlns="http://www.w3.org/2000/svg" xmlns:xlink="http://www.w3.org/1999/xlink" viewBox="0 0 64 64">
  <defs>
    <path id="b" d="M52.5968293 20.8792219l.0060158.0094865a54.88627861 54.88627861 0 0 0-.0030086-.0047427 62.25256027 62.25256027 0 0 0-.0030072-.0047438zM18.0701317 2.27327151c1.8488166 1.04693238 3.5964185 2.37153218 5.0888873 3.84380055 2.4057974-.44426787 4.8864578-.66829499 7.4030524-.66829499 7.5336135 0 14.6761427 2.01498197 20.1105976 5.67261913 2.8142499 1.8950801 5.0511564 4.1435552 6.6478345 6.683581C59.0986495 20.6352916 60 23.6789052 60 26.9402352c0 3.1736124-.9013505 6.2184881-2.6794965 9.0481715-1.5966781 2.5412879-3.8335846 4.7891319-6.6478345 6.684212-5.4344549 3.6576372-12.5763852 5.671357-20.1105976 5.671357-2.5165946 0-4.9966561-.2240271-7.4030524-.6676639-1.4930677 1.4716373-3.2400707 2.7968681-5.0888873 3.8438005C8.19180899 56.5641934 0 51.638752 0 51.638752s7.61626224-6.592708 6.37772876-12.3719766c-3.4077638-3.5610847-5.25418485-7.8560948-5.25418485-12.4129957 0-4.4710765 1.84701996-8.7660866 5.25418485-12.3278023C7.61605716 8.74829665.00252205 2.15681509 6.3e-7 2.15463234c.00243608-.00146559 8.19327752-4.92532268 18.07013107.11863917zM12.1617249 36.8828377c.9535649 3.1010866.3949246 6.5962718-1.675921 10.4855555-.0990736.1860716-.1913618.3742694-.2915859.5600486 1.7766537-.1515808 3.5724085-.6483592 5.3909295-1.5588996 1.371962-.7874304 2.6881752-1.7866971 3.8111477-2.8909174l2.0667191-2.0322075c2.8268721.776453 5.9283366 1.2051709 9.1816138 1.2051709 13.200062 0 23.9008264-7.0579968 23.9008264-15.764477 0-8.7064803-10.7007644-15.764477-23.9008264-15.764477-13.200062 0-23.90082645 7.0579967-23.90082645 15.764477 0 3.7942172 2.03223505 7.2753627 5.41792325 9.9957265z"/>
    <filter id="a" width="111.1%" height="111.2%" x="-6.1%" y="-5.6%" filterUnits="objectBoundingBox">
      <feMorphology in="SourceAlpha" operator="dilate" radius=".5" result="shadowSpreadOuter1"/>
      <feOffset in="shadowSpreadOuter1" result="shadowOffsetOuter1"/>
      <feGaussianBlur in="shadowOffsetOuter1" result="shadowBlurOuter1" stdDeviation=".5"/>
      <feColorMatrix in="shadowBlurOuter1" values="0 0 0 0 0 0 0 0 0 0 0 0 0 0 0 0 0 0 0.05 0"/>
    </filter>
    <path id="c" d="M19.0811772 30.2143846c-1.9302871 0-3.495094-1.6072207-3.495094-3.5898279s1.5648069-3.5898279 3.495094-3.5898279c1.930287 0 3.4950939 1.6072207 3.4950939 3.5898279s-1.5648069 3.5898279-3.4950939 3.5898279zm11.2524975 0c-1.9302871 0-3.495094-1.6072207-3.495094-3.5898279s1.5648069-3.5898279 3.495094-3.5898279c1.930287 0 3.4950939 1.6072207 3.4950939 3.5898279s-1.5648069 3.5898279-3.4950939 3.5898279zm11.2524975 0c-1.9302871 0-3.495094-1.6072207-3.495094-3.5898279s1.5648069-3.5898279 3.495094-3.5898279c1.930287 0 3.4950939 1.6072207 3.4950939 3.5898279s-1.5648069 3.5898279-3.4950939 3.5898279z"/>
    <filter id="d" width="103.4%" height="113.9%" x="-1.7%" y="-7%" filterUnits="objectBoundingBox">
      <feGaussianBlur in="SourceAlpha" result="shadowBlurInner1" stdDeviation=".5"/>
      <feOffset in="shadowBlurInner1" result="shadowOffsetInner1"/>
      <feComposite in="shadowOffsetInner1" in2="SourceAlpha" k2="-1" k3="1" operator="arithmetic" result="shadowInnerInner1"/>
      <feColorMatrix in="shadowInnerInner1" values="0 0 0 0 0 0 0 0 0 0 0 0 0 0 0 0 0 0 0.1 0"/>
    </filter>
  </defs>
  <g fill="#000" fill-rule="nonzero">
    <g transform="translate(2 5)">
      <use filter="url(#a)" xlink:href="#b"/>
      <use xlink:href="#b"/>
    </g>
    <g transform="translate(2 5)">
      <use xlink:href="#c"/>
      <use filter="url(#d)" xlink:href="#c"/>
    </g>
  </g>
</svg>

<?xml version="1.0" encoding="UTF-8"?>
<svg xmlns="http://www.w3.org/2000/svg" xmlns:xlink="http://www.w3.org/1999/xlink" version="1.1" viewBox="0 0 64 64">
	<defs>
		<path d="M52.5968293,20.8792219 L52.6028451,20.8887084 C52.6018423,20.8871274 52.6008394,20.8855465 52.5998365,20.8839657 C52.5988342,20.8823844 52.5978318,20.8808032 52.5968293,20.8792219 Z M18.0701317,2.27327151 C19.9189483,3.32020389 21.6665502,4.64480369 23.159019,6.11707206 C25.5648164,5.67280419 28.0454768,5.44877707 30.5620714,5.44877707 C38.0956849,5.44877707 45.2382141,7.46375904 50.672669,11.1213962 C53.4869189,13.0164763 55.7238254,15.2649514 57.3205035,17.8049772 C59.0986495,20.6352916 60,23.6789052 60,26.9402352 C60,30.1138476 59.0986495,33.1587233 57.3205035,35.9884067 C55.7238254,38.5296946 53.4869189,40.7775386 50.672669,42.6726187 C45.2382141,46.3302559 38.0962838,48.3439757 30.5620714,48.3439757 C28.0454768,48.3439757 25.5654153,48.1199486 23.159019,47.6763118 C21.6659513,49.1479491 19.9189483,50.4731799 18.0701317,51.5201123 C8.19180899,56.5641934 0,51.638752 0,51.638752 C0,51.638752 7.61626224,45.046044 6.37772876,39.2667754 C2.96996496,35.7056907 1.12354391,31.4106806 1.12354391,26.8537797 C1.12354391,22.3827032 2.97056387,18.0876931 6.37772876,14.5259774 C7.61605716,8.74829665 0.00252204728,2.15681509 6.26408431e-07,2.15463234 C0.00243671048,2.15316675 8.19327815,-2.77069034 18.0701317,2.27327151 Z M12.1617249,36.8828377 C13.1152898,39.9839243 12.5566495,43.4791095 10.4858039,47.3683932 C10.3867303,47.5544648 10.2944421,47.7426626 10.194218,47.9284418 C11.9708717,47.776861 13.7666265,47.2800826 15.5851475,46.3695422 C16.9571095,45.5821118 18.2733227,44.5828451 19.3962952,43.4786248 L21.4630143,41.4464173 C24.2898864,42.2228703 27.3913509,42.6515882 30.6446281,42.6515882 C43.8446901,42.6515882 54.5454545,35.5935914 54.5454545,26.8871112 C54.5454545,18.1806309 43.8446901,11.1226342 30.6446281,11.1226342 C17.4445661,11.1226342 6.74380165,18.1806309 6.74380165,26.8871112 C6.74380165,30.6813284 8.7760367,34.1624739 12.1617249,36.8828377 Z" id="path-1"></path>
		<filter x="-6.1%" y="-5.6%" width="111.1%" height="111.2%" filterUnits="objectBoundingBox" id="filter-2">
			<feMorphology radius="0.5" operator="dilate" in="SourceAlpha" result="shadowSpreadOuter1"></feMorphology>
			<feOffset dx="0" dy="0" in="shadowSpreadOuter1" result="shadowOffsetOuter1"></feOffset>
			<feGaussianBlur stdDeviation="0.5" in="shadowOffsetOuter1" result="shadowBlurOuter1"></feGaussianBlur>
			<feColorMatrix values="0 0 0 0 0   0 0 0 0 0   0 0 0 0 0  0 0 0 0.05 0" type="matrix" in="shadowBlurOuter1"></feColorMatrix>
		</filter>
		<path d="M19.0811772,30.2143846 C17.1508901,30.2143846 15.5860832,28.6071639 15.5860832,26.6245567 C15.5860832,24.6419495 17.1508901,23.0347288 19.0811772,23.0347288 C21.0114642,23.0347288 22.5762711,24.6419495 22.5762711,26.6245567 C22.5762711,28.6071639 21.0114642,30.2143846 19.0811772,30.2143846 Z M30.3336747,30.2143846 C28.4033876,30.2143846 26.8385807,28.6071639 26.8385807,26.6245567 C26.8385807,24.6419495 28.4033876,23.0347288 30.3336747,23.0347288 C32.2639617,23.0347288 33.8287686,24.6419495 33.8287686,26.6245567 C33.8287686,28.6071639 32.2639617,30.2143846 30.3336747,30.2143846 Z M41.5861722,30.2143846 C39.6558851,30.2143846 38.0910782,28.6071639 38.0910782,26.6245567 C38.0910782,24.6419495 39.6558851,23.0347288 41.5861722,23.0347288 C43.5164592,23.0347288 45.0812661,24.6419495 45.0812661,26.6245567 C45.0812661,28.6071639 43.5164592,30.2143846 41.5861722,30.2143846 Z" id="path-3"></path>
		<filter x="-1.7%" y="-7.0%" width="103.4%" height="113.9%" filterUnits="objectBoundingBox" id="filter-4">
			<feGaussianBlur stdDeviation="0.5" in="SourceAlpha" result="shadowBlurInner1"></feGaussianBlur>
			<feOffset dx="0" dy="0" in="shadowBlurInner1" result="shadowOffsetInner1"></feOffset>
			<feComposite in="shadowOffsetInner1" in2="SourceAlpha" operator="arithmetic" k2="-1" k3="1" result="shadowInnerInner1"></feComposite>
			<feColorMatrix values="0 0 0 0 0   0 0 0 0 0   0 0 0 0 0  0 0 0 0.1 0" type="matrix" in="shadowInnerInner1"></feColorMatrix>
		</filter>
	</defs>
	<g id="Tray-icon" stroke="none" stroke-width="1" fill="none" fill-rule="evenodd">
		<g id="Group-2" transform="translate(2.000000, 5.000000)" fill-rule="nonzero">
			<g id="RC-icom">
				<g id="Combined-Shape">
					<use fill="black" fill-opacity="1" filter="url(#filter-2)" xlink:href="#path-1"></use>
					<use fill="#000000" xlink:href="#path-1"></use>
				</g>
				<g id="circles">
					<use fill="#000000" xlink:href="#path-3"></use>
					<use fill="black" fill-opacity="1" filter="url(#filter-4)" xlink:href="#path-3"></use>
				</g>
			</g>
		</g>
	</g>
</svg>
